X: 1
T: the Road From Winchester
C: Noah VanNorstrand
R: waltz
S: Audrey Knuth 2020-09-24
Z: 2020 John Chambers <jc:trillian.mit.edu>
M: 3/4
L: 1/8
K: A
Ac |\
"A"e4 (ce) | "D"f4 (ef) | "A"e2 c2 BA | "F#m"F2A2 c2 |\
"E"B4 AB | "A"c4 (BA) | "F#m"F4 (FE) | F4 :|
|: c2 |\
"E"B4 (AB) | "A(C#m)"c4 (BA) | "D"F2 A2 AG | F2 (E2 A2) |\
"E"B4 (AB) | "A"c4 (BA) | "F#m"F4 FE | F4 :|
